X: 240
T: Earls Chair
T:Down between the Two Derryoobers
C:Patrick(Patto)Moloney of Woodford, Co Galway
R:reel
M:4/4
L:1/8
K:D
"Bm"B2dB BAFA|B2dB BAFB|"D"AF (3FFF DF (3FFF|AFdB ADFA|
"Bm"B2dB BAFA|B2dB BAFB|"D"AFAB ~d3f|1"Em"edef "D"d3A:|2"Em"edef "D"d3f|
"Em"e2ef "D"d2df|"Em"edef "D"dBA2|"Em"e2ef "D"d3e|"Bm"fedB "D"ADFA|
"Em"e2ef "Bm"dB (3BBB|"G"gB (3BBB "D"defg|afbf afeg|"Bm"fedB "D"ADFA:|


